X:1
T:Lyræ, 11.11.11 D
T:Lyræ, 11.11.11 D
T:French Melody, before 1892
T:Public Domain Courtesy of the Cyber Hymnal™
C:French Melody, before 1892
Z:Public Domain
Z:Courtesy of the Cyber Hymnal™
%%score ( 1 2 ) ( 3 4 )
L:1/8
Q:1/4=108
M:6/8
K:G
V:1 treble 
V:2 treble 
V:3 bass 
V:4 bass 
V:1
 [GB]2 [GB] [GB]2 [GB] | [Gd]3 [GB]3 | [Fc]2 [Fc] (cd)[Fc] | [GB]6 | [GB]2 [GB] (BA)[GB] | %5
 [Gd]3 [GB]3 | [Fd]2 [Fd] (^cd)[Ec] | [DB]6 | [Fc]2 [Fc] (cB)[FA] | [FB]3 [EB]3 | %10
 [EA]2 [EA] (AG)[EA] | [^DB]6 | [EG]2 [EG] [DB]2 [GB] | [Ge]3 [Gd]3 | [Ge]2 [Gd] [Fc]2 [FA] | %15
 [DG]6 | [GB]2 [GB] [GB]2 [GB] | [Gd]3 [GB]3 [Fc]2 [Fc] (cd)[Fc] | [GB]6 | [EG]2 [EG] [DB]2 [GB] | %20
 [Ge]3 [Gd]3 | [Ge]2 [Gd] [Fc]2 [FA] | [DG]6 |] x6 |] %24
V:2
 x6 | x6 | x3 F2 x | x6 | x3 G2 x | x6 | x3 E2 x | x6 | x3 F2 x | x6 | x3 E2 x | x6 | x6 | x6 | %14
 x6 | x6 | x6 | x9 F2 x | x6 | x6 | x6 | x6 | x6 |] x6 |] %24
V:3
 [G,D]2 [G,D] [G,D]2 [G,D] | [B,D]3 [G,D]3 | [D,D]2 [D,D] [D,A,]2 [D,D] | [G,D]6 | %4
 [G,D]2 [G,D] [G,D]2 [G,D] | [B,D]3 [G,D]3 | [B,D]2 [B,D] [F,^A,]2 [F,A,] | [B,,B,]6 | %8
 [D,A,]2 [D,A,] (A,B,)[D,C] | [G,B,]3 [G,B,]3 | [C,C]2 [C,C] [C,E,]2 [C,E,] | [B,,F,]6 | %12
 [E,G,]2 [E,G,] G,2 [G,D] | [C,C]3 [B,,D]3 | [C,C]2 [C,B,] [D,A,]2 [D,C] | [G,,B,]6 | %16
 [G,D]2 [G,D] [G,D]2 [G,D] | [B,D]3 [G,D]3 x6 | [D,D]2 [D,D] [D,A,]2 [D,D] | [G,D]6 | %20
 [E,G,]2 [E,G,] G,2 [G,D] | [C,C]3 [B,,D]3 | [C,C]2 [C,B,] [D,A,]2 [D,C] |] [G,,B,]6 |] %24
V:4
 x6 | x6 | x6 | x6 | x6 | x6 | x6 | x6 | x3 D,2 x | x6 | x6 | x6 | x3 G,2 x | x6 | x6 | x6 | x6 | %17
 x12 | x6 | x6 | x3 G,2 x | x6 | x6 |] x6 |] %24

